svg/white/booty.svg

<?xml version="1.0" encoding="UTF-8"?>
<svg width="32px" height="32px" viewBox="0 0 32 32" version="1.1" xmlns="http://www.w3.org/2000/svg" xmlns:xlink="http://www.w3.org/1999/xlink">
    <!-- Generator: Sketch 52.4 (67378) - http://www.bohemiancoding.com/sketch -->
    <title>svg/white/booty</title>
    <desc>Created with Sketch.</desc>
    <g id="white/booty" stroke="none" stroke-width="1" fill="none" fill-rule="evenodd">
        <path d="M16,32 C7.163444,32 0,24.836556 0,16 C0,7.163444 7.163444,0 16,0 C24.836556,0 32,7.163444 32,16 C32,24.836556 24.836556,32 16,32 Z M7.77294063,22.9798626 L8.62969395,25.7819236 L10.1706884,25.3108368 L10.1220757,25.1518462 L11.757196,27.5757929 L13.0924119,26.6752598 L12.9794887,26.5078595 L15.2668983,28.36 L16.2804574,27.1084718 L16.1053296,26.966669 L18.8766489,28.0303827 L19.4538224,26.5269298 L19.3062784,26.4702982 L22.2014079,26.672727 L22.313755,25.066234 L22.0908989,25.0506518 L24.983179,24.3829766 L24.6208815,22.8138353 L24.3575163,22.8746325 L26.9750566,21.3635313 L26.1697758,19.9688702 L25.9176903,20.1143987 L28,17.8815965 L26.82211,16.7832956 L26.62629,16.9932677 L27.9665702,14.2455343 L26.5190072,13.5395744 L26.4013911,13.7807012 L26.8770858,10.7775541 L25.2863532,10.5256295 L25.2529904,10.7362549 L24.7843115,7.77739997 L23.1935788,8.02932453 L23.2049348,8.10101567 L21.9552814,5.53907799 L20.5077184,6.2450379 L20.5492416,6.33016546 L18.6012712,4.24141148 L17.4233812,5.33971254 L17.5207319,5.444099 L15.0192533,4 L14.2139727,5.39466114 L14.3946528,5.49896746 L11.5265918,4.83688316 L11.1642943,6.40602429 L11.4353594,6.46859896 L8.43292305,6.67853081 L8.54527013,8.28502391 L8.88042185,8.26158993 L6.01270499,9.36230393 L6.58987856,10.8657568 L6.89668378,10.7479959 L4.49572882,12.6920754 L5.50928792,13.9436037 L5.66840398,13.8147657 L4,16.288053 L5.33521587,17.1885862 L5.44232432,17.0298058 L4.5722389,19.8754701 L6.11242638,20.3463101 L6.16237928,20.1829364 L6.16237928,23.1363267 L7.77294063,23.1363267 L7.77294063,22.9798626 Z M7.77294063,21.0662973 L7.77294063,18.3762831 L6.71477846,18.3762831 L7.50425405,15.7942578 L6.48580883,15.482916 L7.99723874,13.2423313 L7.11239489,12.6455504 L9.20887048,10.9480112 L8.5369995,10.1183945 L11.0341632,9.15990972 L10.6420141,8.13841852 L13.2941471,7.95298005 L13.2191368,6.88037924 L15.8027569,7.47680111 L16.0400933,6.44887721 L18.3366634,7.77468294 L18.855778,6.87563135 L20.6700161,8.82098804 L21.4221312,8.11969272 L22.5945725,10.5233367 L23.5173438,10.0733117 L23.9382809,12.7307641 L24.9627624,12.5685168 L24.5416511,15.2270691 L25.6131168,15.3967572 L24.4321532,17.8178732 L25.4117331,18.2956031 L23.575475,20.264571 L24.3716339,21.0069342 L22.0470851,22.3488921 L22.5866861,23.283424 L19.982419,23.8846121 L20.2214649,24.91994 L17.5648779,24.7341902 L17.4921616,25.7739869 L15.0095378,24.8210828 L14.6410248,25.7810052 L12.5808748,24.1128792 L11.9169356,24.932702 L10.430389,22.7290048 L9.56063146,23.3156108 L8.77886067,20.7587844 L7.77294063,21.0662973 Z M11.3324868,11.2171703 L10.1145241,19.9266624 L13.6822935,19.9266624 C14.0677785,19.9266624 14.4614595,19.8856577 14.8633482,19.8036471 C15.2652369,19.7216363 15.6343128,19.5863207 15.970587,19.3976961 C16.3068611,19.2090716 16.5939202,18.9609929 16.8317727,18.6534528 C17.0696252,18.3459128 17.2213564,17.9625184 17.2869708,17.5032586 C17.3279799,17.2244222 17.3197782,16.9619919 17.2623656,16.7159598 C17.2049529,16.4699278 17.1065326,16.254653 16.9671018,16.0701288 C16.8276711,15.8856048 16.6492844,15.7338873 16.4319364,15.6149718 C16.2145884,15.4960563 15.9664875,15.416097 15.6876259,15.3750917 L15.6876259,15.3504886 C16.155129,15.2110704 16.5508605,14.9793937 16.8748319,14.6554515 C17.1988035,14.3315092 17.3935935,13.9235121 17.4592079,13.431448 C17.5248225,12.9557859 17.483814,12.5744419 17.3361814,12.2874045 C17.1885489,12.0003671 16.9732546,11.7768913 16.6902922,11.6169704 C16.4073297,11.4570496 16.0792623,11.3504373 15.7060799,11.2971303 C15.3328976,11.2438234 14.9576704,11.2171703 14.5803872,11.2171703 L11.3324868,11.2171703 Z M12.7595945,14.6985069 L13.0179502,12.8409739 L14.3220314,12.8409739 C14.469664,12.8409739 14.6193448,12.8553256 14.7710783,12.8840293 C14.9228118,12.9127331 15.0560892,12.9598885 15.1709145,13.025497 C15.2857398,13.0911056 15.373908,13.1833663 15.4354216,13.3022818 C15.4969351,13.4211973 15.5153889,13.5708645 15.4907835,13.7512881 C15.4661781,13.9235105 15.4108167,14.0711276 15.3246977,14.1941436 C15.2385787,14.3171596 15.1319567,14.415571 15.0048287,14.4893806 C14.8777006,14.5631902 14.7403224,14.6164964 14.5926898,14.6493007 C14.4450572,14.682105 14.2974269,14.6985069 14.1497943,14.6985069 L12.7595945,14.6985069 Z M12.2551857,18.3028588 L12.5381468,16.3223105 L13.9898598,16.3223105 C14.1456942,16.3223105 14.3117784,16.3346118 14.4881173,16.3592151 C14.6644562,16.3838183 14.8264395,16.4289236 14.9740721,16.4945321 C15.1217046,16.5601407 15.2365282,16.6565018 15.3185463,16.7836184 C15.4005644,16.910735 15.4292703,17.076804 15.4046649,17.2818308 C15.3800595,17.4704554 15.3185468,17.6303739 15.2201251,17.761591 C15.1217034,17.8928081 15.0068798,17.9994204 14.8756508,18.0814311 C14.7444219,18.1634417 14.5988419,18.2208484 14.4389067,18.2536527 C14.2789714,18.286457 14.1251897,18.3028588 13.9775572,18.3028588 L12.2551857,18.3028588 Z M21.514511,11.3554486 L19.0640236,11.0064138 L17.7964121,18.6772286 L19.4783549,18.7951017 L21.514511,11.3554486 Z M19.7391993,19.5712008 L17.4852324,19.0266027 L16.972934,21.5484792 L19.209992,22.1998353 L19.7391993,19.5712008 Z" id="Combined-Shape" fill="#FFFFFF" fill-rule="nonzero"></path>
    </g>
</svg>

<svg width="32" height="32" viewBox="0 0 32 32" xmlns="http://www.w3.org/2000/svg"><path d="M16 32C7.163 32 0 24.837 0 16S7.163 0 16 0s16 7.163 16 16-7.163 16-16 16zm-8.227-9.02l.857 2.802 1.54-.471-.048-.16 1.635 2.425 1.335-.9-.113-.168 2.288 1.852 1.013-1.252-.175-.141 2.772 1.063.577-1.503-.148-.057 2.895.203.113-1.607-.223-.015 2.892-.668-.362-1.57-.263.062 2.617-1.511-.805-1.395-.252.145L28 17.882l-1.178-1.099-.196.21 1.34-2.747-1.447-.706-.118.24.476-3.002-1.59-.252-.034.21-.469-2.959-1.59.252.01.072-1.249-2.562-1.447.706.041.085-1.948-2.089-1.178 1.099.098.104L15.019 4l-.805 1.395.18.104-2.867-.662-.363 1.569.271.063-3.002.21.112 1.606.335-.023-2.867 1.1.577 1.504.307-.118-2.401 1.944 1.013 1.252.16-.13L4 16.289l1.335.9.107-.158-.87 2.845 1.54.471.05-.163v2.953h1.61v-.156zm0-1.914v-2.69H6.715l.79-2.582-1.02-.311 1.512-2.24-.885-.597 2.097-1.698-.672-.83 2.497-.958-.392-1.022 2.652-.185-.075-1.073 2.584.597.237-1.028 2.297 1.326.519-.9 1.814 1.946.752-.701 1.173 2.403.922-.45.421 2.658 1.025-.162-.421 2.658 1.071.17-1.18 2.42.979.479-1.837 1.969.797.742-2.325 1.342.54.934-2.605.602.24 1.035-2.657-.186-.073 1.04-2.482-.953-.369.96-2.06-1.668-.664.82-1.487-2.204-.87.587-.781-2.557-1.006.307zm3.56-9.849l-1.218 8.71h3.567c.386 0 .78-.041 1.181-.123a3.8 3.8 0 0 0 1.108-.406c.336-.189.623-.437.86-.745.239-.307.39-.69.456-1.15a2.098 2.098 0 0 0-.025-.787 1.696 1.696 0 0 0-.295-.646 1.656 1.656 0 0 0-.535-.455 2.206 2.206 0 0 0-.744-.24v-.025c.467-.139.863-.37 1.187-.695.324-.323.519-.731.584-1.224.066-.475.025-.857-.123-1.144a1.59 1.59 0 0 0-.646-.67 2.782 2.782 0 0 0-.984-.32 7.95 7.95 0 0 0-1.126-.08h-3.248zM12.76 14.7l.258-1.858h1.304c.148 0 .297.014.45.043.15.029.284.076.399.141a.662.662 0 0 1 .264.277.75.75 0 0 1 .056.45c-.025.172-.08.32-.166.442a1 1 0 0 1-.32.295 1.436 1.436 0 0 1-.412.16c-.148.033-.296.05-.443.05h-1.39zm-.505 3.604l.283-1.98h1.452c.156 0 .322.012.498.036.176.025.338.07.486.136a.771.771 0 0 1 .345.289c.082.127.11.293.086.498a1 1 0 0 1-.185.48 1.272 1.272 0 0 1-.781.492c-.16.032-.314.049-.461.049h-1.723zm9.26-6.948l-2.451-.349-1.268 7.671 1.682.118 2.037-7.44zm-1.776 8.216l-2.254-.544-.512 2.521 2.237.652.53-2.629z" fill="#FFF"/></svg>
